X: 573
T: Weizuizui kaihua
%%abc-version 2.0
%%abcx-abcm2ps-target-version 5.9.1 (29 Sep 2008)
%%abc-creator hum2abc beta
%%abcx-conversion-date 2013/10/02 07:52:30
%%abc-edited-by Helmut Schaffrath
%%humdrum-veritas 3941100613
%%humdrum-veritas-data 2229501947
%%continueall 1
%%barnumbers 0
L: 1/16
M: 2/4
K: Bb
d'2 d' c' b2 b c' [I:setbarnb 1]| 
d' f' d' c'b4 | 
b2 b d' c'2 c' d' | 
b a g df4 | 
f2 f d f2 f g | 
d'2 d' c'b4 | 
g2 f cB4 | 
c'2 b2d'4- | 
d'4g4- | 
g2 a2 g f d c | 
B8 |]  



